X:378
T:Kincaldrum
R:Reel
B:The Athole Collection
M:C|
L:1/8
K:G
d|g2 dc B2 AG|FGAB cAAf|gdec B2 AG|FGAc BGG:|
B|DGBG cABG|DGBG cAAB|DGBG cABG|BdAc BGGB|
DGBG cABG|DGBG cAAc|Bdef gedc|GdAc BGG||

